assets/icons/send-filled.svg

<?xml version="1.0" encoding="UTF-8" standalone="no"?>
<svg viewBox="0 0 24 24" height="24" width="24" version="1.1" id="svg4" sodipodi:docname="send-filled.svg" inkscape:version="1.1 (ce6663b3b7, 2021-05-25)"
   xmlns:inkscape="http://www.inkscape.org/namespaces/inkscape"
   xmlns:sodipodi="http://sodipodi.sourceforge.net/DTD/sodipodi-0.dtd"
   xmlns="http://www.w3.org/2000/svg"
   xmlns:svg="http://www.w3.org/2000/svg">
   <defs id="defs8" />
   <sodipodi:namedview id="namedview6" pagecolor="#ffffff" bordercolor="#666666" borderopacity="1.0" inkscape:pageshadow="2" inkscape:pageopacity="0.0" inkscape:pagecheckerboard="0" showgrid="false" inkscape:snap-page="true" inkscape:zoom="3.5" inkscape:cx="31.571428" inkscape:cy="-31.428571" inkscape:window-width="1920" inkscape:window-height="1043" inkscape:window-x="1920" inkscape:window-y="0" inkscape:window-maximized="1" inkscape:current-layer="svg4" />
   <path id="path2" style="stroke-width:1;marker:none;fill:#808080;fill-opacity:1" d="M 21.136719 2.8320312 C 11.504219 6.0795313 2.8378906 10.689453 2.8378906 10.689453 L 9.8183594 14.175781 L 13.304688 21.152344 L 13.314453 21.160156 L 13.318359 21.164062 C 13.318359 21.164062 18.152109 12.037891 21.162109 2.8378906 L 21.158203 2.8359375 L 21.150391 2.8359375 L 21.144531 2.8359375 C 21.143031 2.8347375 21.142425 2.8324813 21.140625 2.8320312 L 21.136719 2.8320312 z M 18.042969 5.9570312 C 16.520469 7.4795313 12.943047 12.120078 11.154297 14.048828 L 9.9550781 12.845703 C 11.883828 11.054453 16.520469 7.4795312 18.042969 5.9570312 z " />
</svg>

<svg height="24" width="24" xmlns="http://www.w3.org/2000/svg"><path style="stroke-width:1;marker:none;fill:gray;fill-opacity:1" d="M21.137 2.832c-9.633 3.248-18.3 7.857-18.3 7.857l6.981 3.487 3.487 6.976.01.008.003.004s4.834-9.126 7.844-18.326l-.004-.002h-.013l-.004-.004h-.004zm-3.094 3.125c-1.523 1.523-5.1 6.163-6.889 8.092l-1.199-1.203c1.929-1.792 6.565-5.366 8.088-6.889z"/></svg>
